X: 20434
T: John J Kimmel's
R: barndance
M: 4/4
K: Gmajor
"Intro"A2|f6 ed/B/|A8|B2d4e2|f6d2|
f2e2d B2z|ABAF dBz2|d2zd2 e/a/z2|d2z2c2z2|
|:"Tempo di barndance"D2G2 F2A2|G>Bd3 Bcd|eA3B3^G|A4 zGFE|D3c B3F|
[1AGG3 GFG|B2A2 A2 ^G2|A4 z2GF/E/:|
[2A2 G2 F2E2|D2<B2 D2<A2|G8||
|:B2B3 BcB|efgf e2(3BBB|(3BBB (3cBA (3BBB (3cBA|efgf e2z2|
A2A3 ABA|defe d2 (3AAA|(3AAA (3gfe (3AAA (3gfe|d2z2 c2z2:|

